;FLAVOR:UltiGCode
;TIME:4260
;MATERIAL:1563
;MATERIAL2:0

;Layer count: 76
;LAYER:0
M107
G0 F9000 X97.253 Y87.941 Z0.300
;TYPE:SKIRT
G1 F1200 X132.453 Y87.941 E4.22400
G1 X132.453 Y113.641 E7.30800
G1 X97.253 Y113.641 E11.53200
G1 X97.253 Y87.941 E14.61600
G0 F9000 X97.653 Y88.341
G1 F1200 X132.053 Y88.341 E18.74400
G1 X132.053 Y113.241 E21.73200
G1 X97.653 Y113.241 E25.86000
G1 X97.653 Y88.341 E28.84800
G10
G0 F9000 X101.453 Y92.141
;TYPE:WALL-INNER
G11
G1 F1200 X128.253 Y92.141 E32.06400
G1 X128.253 Y109.441 E34.14000
G1 X101.453 Y109.441 E37.35600
G1 X101.453 Y102.393 E38.20176
G1 X103.453 Y102.393 E38.44176
G1 X103.453 Y96.571 E39.14040
G1 X101.453 Y96.571 E39.38040
G1 X101.453 Y92.141 E39.91200
G0 F9000 X103.394 Y96.630
G0 X103.394 Y102.334
G0 X103.330 Y103.214
G1 F1200 X102.981 Y103.288 E39.95481
G1 X102.649 Y103.422 E39.99777
G1 X102.346 Y103.609 E40.04050
G1 X102.079 Y103.844 E40.08318
G1 X101.855 Y104.122 E40.12603
G1 X101.681 Y104.433 E40.16879
G1 X101.562 Y104.769 E40.21156
G1 X101.502 Y105.120 E40.25429
G1 X101.502 Y105.477 E40.29713
G1 X101.562 Y105.828 E40.33987
G1 X101.681 Y106.164 E40.38264
G1 X101.855 Y106.475 E40.42540
G1 X102.079 Y106.753 E40.46825
G1 X102.346 Y106.988 E40.51093
G1 X102.649 Y107.175 E40.55365
G1 X102.981 Y107.309 E40.59662
G1 X103.330 Y107.383 E40.63943
G1 X103.685 Y107.399 E40.68207
G1 X104.040 Y107.354 E40.72501
G1 X104.381 Y107.249 E40.76783
G1 X104.698 Y107.089 E40.81044
G1 X104.986 Y106.877 E40.85335
G1 X105.233 Y106.619 E40.89621
G1 X105.432 Y106.323 E40.93901
G1 X105.579 Y105.999 E40.98171
G1 X105.668 Y105.654 E41.02446
G1 X105.699 Y105.298 E41.06735
G1 X105.668 Y104.943 E41.11011
G1 X105.579 Y104.598 E41.15286
G1 X105.432 Y104.274 E41.19556
G1 X105.233 Y103.978 E41.23836
G1 X104.986 Y103.720 E41.28122
G1 X104.698 Y103.508 E41.32413
G1 X104.381 Y103.348 E41.36674
G1 X104.040 Y103.243 E41.40956
G1 X103.685 Y103.198 E41.45250
G1 X103.330 Y103.214 E41.49515
G0 F9000 X103.381 Y103.612
;TYPE:WALL-OUTER
G1 F1200 X103.098 Y103.672 E41.52986
G1 X102.830 Y103.780 E41.56453
G1 X102.585 Y103.932 E41.59913
G1 X102.369 Y104.122 E41.63365
G1 X102.188 Y104.347 E41.66830
G1 X102.047 Y104.598 E41.70285
G1 X101.951 Y104.870 E41.73746
G1 X101.902 Y105.154 E41.77205
G1 X101.902 Y105.443 E41.80673
G1 X101.951 Y105.727 E41.84131
G1 X102.047 Y105.999 E41.87593
G1 X102.188 Y106.250 E41.91047
G1 X102.369 Y106.475 E41.94512
G1 X102.585 Y106.665 E41.97964
G1 X102.830 Y106.817 E42.01424
G1 X103.098 Y106.925 E42.04892
G1 X103.381 Y106.985 E42.08363
G1 X103.668 Y106.998 E42.11811
G1 X103.955 Y106.961 E42.15283
G1 X104.231 Y106.876 E42.18749
G1 X104.488 Y106.747 E42.22199
G1 X104.721 Y106.576 E42.25668
G1 X104.920 Y106.367 E42.29131
G1 X105.081 Y106.128 E42.32589
G1 X105.200 Y105.865 E42.36053
G1 X105.273 Y105.586 E42.39513
G1 X105.298 Y105.298 E42.42982
G1 X105.273 Y105.011 E42.46439
G1 X105.200 Y104.732 E42.49900
G1 X105.081 Y104.469 E42.53364
G1 X104.920 Y104.230 E42.56822
G1 X104.721 Y104.021 E42.60285
G1 X104.488 Y103.850 E42.63753
G1 X104.231 Y103.721 E42.67204
G1 X103.955 Y103.636 E42.70670
G1 X103.668 Y103.599 E42.74142
G1 X103.381 Y103.612 E42.77590
G0 F9000 X103.321 Y103.319
G0 X103.053 Y102.293
G0 X103.053 Y101.993
G1 F1200 X103.053 Y96.971 E43.37854
G1 X101.053 Y96.971 E43.61854
G1 X101.053 Y91.741 E44.24614
G1 X128.653 Y91.741 E47.55814
G1 X128.653 Y109.841 E49.73014
G1 X101.053 Y109.841 E53.04214
G1 X101.053 Y101.993 E53.98390
G1 X103.053 Y101.993 E54.22390
G0 F9000 X103.592 Y102.178
;TYPE:SKIN
G1 F900 X104.892 Y103.478 E54.44451
G0 F9000 X105.421 Y104.006
G1 F900 X110.714 Y109.300 E55.34285
G0 F9000 X110.148 Y109.300
G1 F900 X105.808 Y104.960 E56.07937
G0 F9000 X105.818 Y105.535
G1 F900 X109.583 Y109.300 E56.71831
G0 F9000 X109.017 Y109.300
G1 F900 X105.721 Y106.004 E57.27766
G0 F9000 X105.549 Y106.398
G1 F900 X108.451 Y109.300 E57.77015
G0 F9000 X107.886 Y109.300
G1 F900 X105.317 Y106.732 E58.20604
G0 F9000 X105.035 Y107.014
G1 F900 X107.320 Y109.300 E58.59390
G0 F9000 X106.754 Y109.300
G1 F900 X104.698 Y107.244 E58.94282
G0 F9000 X104.306 Y107.418
G1 F900 X106.189 Y109.300 E59.26229
G0 F9000 X105.623 Y109.300
G1 F900 X103.842 Y107.519 E59.56453
G0 F9000 X103.270 Y107.512
G1 F900 X105.057 Y109.300 E59.86788
G0 F9000 X104.491 Y109.300
G1 F900 X102.337 Y107.145 E60.23351
G0 F9000 X101.592 Y106.966
G1 F900 X103.926 Y109.300 E60.62961
G0 F9000 X103.360 Y109.300
G1 F900 X101.592 Y107.532 E60.92964
G0 F9000 X101.592 Y108.098
G1 F900 X102.794 Y109.300 E61.13363
G0 F9000 X102.229 Y109.300
G1 F900 X101.592 Y108.663 E61.24173
G0 F9000 X101.592 Y109.229
G1 F900 X101.663 Y109.300 E61.25378
G0 F9000 X101.730 Y106.539
G1 F900 X101.652 Y106.460 E61.26710
G0 F9000 X101.564 Y104.770
G0 X101.884 Y103.864
G1 F900 X101.592 Y103.572 E61.31666
G0 F9000 X101.592 Y103.007
G1 F900 X102.166 Y103.580 E61.41399
G0 F9000 X102.500 Y103.348
G1 F900 X101.684 Y102.532 E61.55246
G0 F9000 X102.249 Y102.532
G1 F900 X102.889 Y103.172 E61.66108
G0 F9000 X103.355 Y103.072
G1 F900 X103.098 Y102.533 E61.75244
G1 X103.937 Y103.089 E61.87322
G0 F9000 X103.592 Y101.612
G1 F900 X111.280 Y109.300 E63.17792
G0 F9000 X111.845 Y109.300
G1 F900 X103.592 Y101.046 E64.57858
G0 F9000 X103.592 Y100.481
G1 F900 X112.411 Y109.300 E66.07522
G0 F9000 X112.977 Y109.300
G1 F900 X103.592 Y99.915 E67.66790
G0 F9000 X103.592 Y99.349
G1 F900 X113.542 Y109.300 E69.35656
G0 F9000 X114.108 Y109.300
G1 F900 X103.592 Y98.784 E71.14118
G0 F9000 X103.592 Y98.218
G1 F900 X114.674 Y109.300 E73.02186
G0 F9000 X115.240 Y109.300
G1 F900 X103.592 Y97.652 E74.99859
G0 F9000 X103.592 Y97.087
G1 F900 X115.805 Y109.300 E77.07121
G0 F9000 X116.371 Y109.300
G1 F900 X103.592 Y96.521 E79.23987
G0 F9000 X103.502 Y96.430
G1 F900 X101.592 Y94.521 E79.56393
G0 F9000 X101.592 Y95.086
G1 F900 X102.936 Y96.430 E79.79201
G0 F9000 X102.370 Y96.430
G1 F900 X101.592 Y95.652 E79.92404
G0 F9000 X101.592 Y96.218
G1 F900 X101.804 Y96.430 E79.96002
G0 F9000 X101.592 Y93.955
G1 F900 X116.937 Y109.300 E82.56415
G0 F9000 X117.502 Y109.300
G1 F900 X101.592 Y93.389 E85.26425
G0 F9000 X101.592 Y92.824
G1 F900 X118.068 Y109.300 E88.06032
G0 F9000 X118.634 Y109.300
G1 F900 X101.614 Y92.280 E90.94871
G0 F9000 X102.180 Y92.280
G1 F900 X119.199 Y109.300 E93.83702
G0 F9000 X119.765 Y109.300
G1 F900 X102.746 Y92.280 E96.72532
G0 F9000 X103.311 Y92.280
G1 F900 X120.331 Y109.300 E99.61371
G0 F9000 X120.896 Y109.300
G1 F900 X103.877 Y92.280 E102.50202
G0 F9000 X104.443 Y92.280
G1 F900 X121.462 Y109.300 E105.39032
G0 F9000 X122.028 Y109.300
G1 F900 X105.008 Y92.280 E108.27871
G0 F9000 X105.574 Y92.280
G1 F900 X122.593 Y109.300 E111.16702
G0 F9000 X123.159 Y109.300
G1 F900 X106.140 Y92.280 E114.05532
G0 F9000 X106.705 Y92.280
G1 F900 X123.725 Y109.300 E116.94371
G0 F9000 X124.290 Y109.300
G1 F900 X107.271 Y92.280 E119.83202
G0 F9000 X107.837 Y92.280
G1 F900 X124.856 Y109.300 E122.72032
G0 F9000 X125.422 Y109.300
G1 F900 X108.403 Y92.280 E125.60863
G0 F9000 X108.968 Y92.280
G1 F900 X125.988 Y109.300 E128.49702
G0 F9000 X126.553 Y109.300
G1 F900 X109.534 Y92.280 E131.38532
G0 F9000 X110.100 Y92.280
G1 F900 X127.119 Y109.300 E134.27363
G0 F9000 X127.685 Y109.300
G1 F900 X110.665 Y92.280 E137.16202
G0 F9000 X111.231 Y92.280
G1 F900 X128.112 Y109.162 E140.02690
G0 F9000 X128.112 Y108.596
G1 F900 X111.797 Y92.280 E142.79574
G0 F9000 X112.362 Y92.280
G1 F900 X128.112 Y108.031 E145.46868
G0 F9000 X128.112 Y107.465
G1 F900 X112.928 Y92.280 E148.04558
G0 F9000 X113.494 Y92.280
G1 F900 X128.112 Y106.899 E150.52642
G0 F9000 X128.112 Y106.334
G1 F900 X114.059 Y92.280 E152.91138
G0 F9000 X114.625 Y92.280
G1 F900 X128.112 Y105.768 E155.20028
G0 F9000 X128.112 Y105.202
G1 F900 X115.191 Y92.280 E157.39313
G0 F9000 X115.756 Y92.280
G1 F900 X128.112 Y104.636 E159.49002
G0 F9000 X128.112 Y104.071
G1 F900 X116.322 Y92.280 E161.49093
G0 F9000 X116.888 Y92.280
G1 F900 X128.112 Y103.505 E163.39579
G0 F9000 X128.112 Y102.939
G1 F900 X117.453 Y92.280 E165.20468
G0 F9000 X118.019 Y92.280
G1 F900 X128.112 Y102.374 E166.91761
G0 F9000 X128.112 Y101.808
G1 F900 X118.585 Y92.280 E168.53448
G0 F9000 X119.151 Y92.280
G1 F900 X128.112 Y101.242 E170.05530
G0 F9000 X128.112 Y100.677
G1 F900 X119.716 Y92.280 E171.48023
G0 F9000 X120.282 Y92.280
G1 F900 X128.112 Y100.111 E172.80911
G0 F9000 X128.112 Y99.545
G1 F900 X120.848 Y92.280 E174.04194
G0 F9000 X121.413 Y92.280
G1 F900 X128.112 Y98.980 E175.17888
G0 F9000 X128.112 Y98.414
G1 F900 X121.979 Y92.280 E176.21977
G0 F9000 X122.545 Y92.280
G1 F900 X128.112 Y97.848 E177.16460
G0 F9000 X128.112 Y97.283
G1 F900 X123.110 Y92.280 E178.01356
G0 F9000 X123.676 Y92.280
G1 F900 X128.112 Y96.717 E178.76646
G0 F9000 X128.112 Y96.151
G1 F900 X124.242 Y92.280 E179.42330
G0 F9000 X124.807 Y92.280
G1 F900 X128.112 Y95.585 E179.98418
G0 F9000 X128.112 Y95.020
G1 F900 X125.373 Y92.280 E180.44909
G0 F9000 X125.939 Y92.280
G1 F900 X128.112 Y94.454 E180.81794
G0 F9000 X128.112 Y93.888
G1 F900 X126.504 Y92.280 E181.09083
G0 F9000 X127.070 Y92.280
G1 F900 X128.112 Y93.323 E181.26775
G0 F9000 X128.112 Y92.757
G1 F900 X127.636 Y92.280 E181.34861
;LAYER:1
M106 S51
G0 F9000 X128.253 Y92.141 Z0.340
;TYPE:WALL-INNER
G1 F1800 X128.253 Y109.441 E181.62541
G1 X101.453 Y109.441 E182.05421
G1 X101.453 Y102.393 E182.16698
G1 X103.453 Y102.393 E182.19898
G1 X103.453 Y96.571 E182.29213
G1 X101.453 Y96.571 E182.32413
G1 X101.453 Y92.141 E182.39501
G1 X128.253 Y92.141 E182.82381
G0 F9000 X105.432 Y104.274
G1 F1800 X105.233 Y103.978 E182.82952
G1 X104.986 Y103.720 E182.83523
G1 X104.698 Y103.508 E182.84095
G1 X104.381 Y103.348 E182.84664
G1 X104.040 Y103.243 E182.85235
G1 X103.685 Y103.198 E182.85807
G1 X103.330 Y103.214 E182.86376
G1 X102.981 Y103.288 E182.86946
G1 X102.649 Y103.422 E182.87519
G1 X102.346 Y103.609 E182.88089
G1 X102.079 Y103.844 E182.88658
G1 X101.855 Y104.122 E182.89229
G1 X101.681 Y104.433 E182.89799
G1 X101.562 Y104.769 E182.90370
G1 X101.502 Y105.120 E182.90940
G1 X101.502 Y105.477 E182.91511
G1 X101.562 Y105.828 E182.92080
G1 X101.681 Y106.164 E182.92651
G1 X101.855 Y106.475 E182.93221
G1 X102.079 Y106.753 E182.93792
G1 X102.346 Y106.988 E182.94361
G1 X102.649 Y107.175 E182.94931
G1 X102.981 Y107.309 E182.95504
G1 X103.330 Y107.383 E182.96075
G1 X103.685 Y107.399 E182.96643
G1 X104.040 Y107.354 E182.97216
G1 X104.381 Y107.249 E182.97787
G1 X104.698 Y107.089 E182.98355
G1 X104.986 Y106.877 E182.98927
G1 X105.233 Y106.619 E182.99498
G1 X105.432 Y106.323 E183.00069
G1 X105.579 Y105.999 E183.00638
G1 X105.668 Y105.654 E183.01208
G1 X105.699 Y105.298 E183.01780
G1 X105.668 Y104.943 E183.02350
G1 X105.579 Y104.598 E183.02920
G1 X105.432 Y104.274 E183.03490
G0 F9000 X105.081 Y104.469
;TYPE:WALL-OUTER
G1 F1320 X104.920 Y104.230 E183.03951
G1 X104.721 Y104.021 E183.04413
G1 X104.488 Y103.850 E183.04875
G1 X104.231 Y103.721 E183.05335
G1 X103.955 Y103.636 E183.05797
G1 X103.668 Y103.599 E183.06260
G1 X103.381 Y103.612 E183.06720
G1 X103.098 Y103.672 E183.07183
G1 X102.830 Y103.780 E183.07645
G1 X102.585 Y103.932 E183.08106
G1 X102.369 Y104.122 E183.08567
G1 X102.188 Y104.347 E183.09029
G1 X102.047 Y104.598 E183.09489
G1 X101.951 Y104.870 E183.09951
G1 X101.902 Y105.154 E183.10412
G1 X101.902 Y105.443 E183.10874
G1 X101.951 Y105.727 E183.11335
G1 X102.047 Y105.999 E183.11797
G1 X102.188 Y106.250 E183.12257
G1 X102.369 Y106.475 E183.12720
G1 X102.585 Y106.665 E183.13180
G1 X102.830 Y106.817 E183.13641
G1 X103.098 Y106.925 E183.14103
G1 X103.381 Y106.985 E183.14566
G1 X103.668 Y106.998 E183.15026
G1 X103.955 Y106.961 E183.15489
G1 X104.231 Y106.876 E183.15951
G1 X104.488 Y106.747 E183.16411
G1 X104.721 Y106.576 E183.16874
G1 X104.920 Y106.367 E183.17335
G1 X105.081 Y106.128 E183.17796
G1 X105.200 Y105.865 E183.18258
G1 X105.273 Y105.586 E183.18720
G1 X105.298 Y105.298 E183.19182
G1 X105.273 Y105.011 E183.19643
G1 X105.200 Y104.732 E183.20105
G1 X105.081 Y104.469 E183.20566
G0 F9000 X105.331 Y104.303
G0 X104.984 Y103.720
G0 X103.053 Y102.293
G0 X103.053 Y101.993
G1 F1320 X103.053 Y96.971 E183.28602
G1 X101.053 Y96.971 E183.31802
G1 X101.053 Y91.741 E183.40170
G1 X128.653 Y91.741 E183.84330
G1 X128.653 Y109.841 E184.13290
G1 X101.053 Y109.841 E184.57450
G1 X101.053 Y101.993 E184.70006
G1 X103.053 Y101.993 E184.73206
G0 F9000 X103.094 Y102.532
;TYPE:SKIN
G1 F900 X101.593 Y104.033 E184.76603
G0 F9000 X101.593 Y103.467
G1 F900 X102.529 Y102.531 E184.78721
G0 F9000 X101.963 Y102.531
G1 F900 X101.593 Y102.901 E184.79558
G0 F9000 X103.065 Y103.127
G1 F900 X113.911 Y92.280 E185.04101
G0 F9000 X114.477 Y92.280
G1 F900 X103.699 Y103.058 E185.28489
G0 F9000 X104.182 Y103.141
G1 F900 X115.042 Y92.280 E185.53063
G0 F9000 X115.608 Y92.280
G1 F900 X104.590 Y103.299 E185.77995
G0 F9000 X104.941 Y103.514
G1 F900 X116.174 Y92.280 E186.03414
G0 F9000 X116.739 Y92.280
G1 F900 X105.240 Y103.780 E186.29434
G0 F9000 X105.485 Y104.100
G1 F900 X117.305 Y92.280 E186.56180
G0 F9000 X117.871 Y92.280
G1 F900 X105.676 Y104.475 E186.83774
G0 F9000 X105.804 Y104.913
G1 F900 X118.436 Y92.280 E187.12358
G0 F9000 X119.002 Y92.280
G1 F900 X105.825 Y105.457 E187.42174
G0 F9000 X105.633 Y106.215
G1 F900 X119.568 Y92.280 E187.73705
G0 F9000 X113.345 Y92.280
G1 F900 X103.592 Y102.034 E187.95775
G0 F9000 X103.592 Y101.468
G1 F900 X112.779 Y92.280 E188.16564
G0 F9000 X112.214 Y92.280
G1 F900 X103.592 Y100.902 E188.36073
G0 F9000 X103.592 Y100.337
G1 F900 X111.648 Y92.280 E188.54303
G0 F9000 X111.082 Y92.280
G1 F900 X103.592 Y99.771 E188.71252
G0 F9000 X103.592 Y99.205
G1 F900 X110.517 Y92.280 E188.86922
G0 F9000 X109.951 Y92.280
G1 F900 X103.592 Y98.639 E189.01310
G0 F9000 X103.592 Y98.074
G1 F900 X109.385 Y92.280 E189.14420
G0 F9000 X108.820 Y92.280
G1 F900 X103.592 Y97.508 E189.26249
G0 F9000 X103.592 Y96.942
G1 F900 X108.254 Y92.280 E189.36798
G0 F9000 X107.688 Y92.280
G1 F900 X103.538 Y96.430 E189.46188
G0 F9000 X102.973 Y96.430
G1 F900 X107.123 Y92.280 E189.55579
G0 F9000 X106.557 Y92.280
G1 F900 X102.407 Y96.430 E189.64969
G0 F9000 X101.841 Y96.430
G1 F900 X105.991 Y92.280 E189.74360
G0 F9000 X105.426 Y92.280
G1 F900 X101.592 Y96.114 E189.83035
G0 F9000 X101.592 Y95.548
G1 F900 X104.860 Y92.280 E189.90430
G0 F9000 X104.294 Y92.280
G1 F900 X101.592 Y94.982 E189.96544
G0 F9000 X101.592 Y94.417
G1 F900 X103.729 Y92.280 E190.01379
G0 F9000 X103.163 Y92.280
G1 F900 X101.592 Y93.851 E190.04934
G0 F9000 X101.592 Y93.285
G1 F900 X102.597 Y92.280 E190.07208
G0 F9000 X102.031 Y92.280
G1 F900 X101.592 Y92.720 E190.08202
G0 F9000 X103.394 Y96.630
G0 X103.394 Y102.334
G0 X101.564 Y104.770
G0 X101.811 Y106.643
G1 F900 X101.836 Y106.901 E190.08697
G1 X101.592 Y107.427 E190.09625
G0 F9000 X101.592 Y107.993
G1 F900 X102.401 Y107.184 E190.11455
G0 F9000 X102.776 Y107.375
G1 F900 X101.592 Y108.559 E190.14134
G0 F9000 X101.592 Y109.124
G1 F900 X103.217 Y107.500 E190.17810
G0 F9000 X103.753 Y107.530
G1 F900 X101.982 Y109.301 E190.21817
G0 F9000 X102.548 Y109.301
G1 F900 X104.510 Y107.338 E190.26258
G0 F9000 X104.245 Y109.301
G1 F900 X121.265 Y92.280 E190.64771
G0 F9000 X121.830 Y92.280
G1 F900 X104.810 Y109.301 E191.03284
G0 F9000 X105.376 Y109.301
G1 F900 X122.396 Y92.280 E191.41797
G0 F9000 X122.962 Y92.280
G1 F900 X105.942 Y109.301 E191.80310
G0 F9000 X106.507 Y109.301
G1 F900 X123.528 Y92.280 E192.18824
G0 F9000 X124.093 Y92.280
G1 F900 X107.073 Y109.301 E192.57337
G0 F9000 X107.639 Y109.301
G1 F900 X124.659 Y92.280 E192.95850
G0 F9000 X125.225 Y92.280
G1 F900 X108.205 Y109.301 E193.34363
G0 F9000 X108.770 Y109.301
G1 F900 X125.790 Y92.280 E193.72876
G0 F9000 X126.356 Y92.280
G1 F900 X109.336 Y109.301 E194.11389
G0 F9000 X109.902 Y109.301
G1 F900 X126.922 Y92.280 E194.49902
G0 F9000 X127.487 Y92.280
G1 F900 X110.467 Y109.301 E194.88415
G0 F9000 X111.033 Y109.301
G1 F900 X128.053 Y92.280 E195.26928
G0 F9000 X128.112 Y92.787
G1 F900 X111.599 Y109.301 E195.64294
G0 F9000 X112.164 Y109.301
G1 F900 X128.112 Y93.352 E196.00381
G0 F9000 X128.112 Y93.918
G1 F900 X112.730 Y109.301 E196.35188
G0 F9000 X113.296 Y109.301
G1 F900 X128.112 Y94.484 E196.68714
G0 F9000 X128.112 Y95.050
G1 F900 X113.861 Y109.301 E197.00960
G0 F9000 X114.427 Y109.301
