;FLAVOR:UltiGCode
;TIME:382
;MATERIAL:321
;MATERIAL2:0

;Layer count: 19
;LAYER:0
M107
G0 F9000 X105.119 Y68.894 Z0.300
;TYPE:SKIRT
G1 F1200 X134.874 Y68.894 E3.57060
G1 X134.874 Y88.794 E5.95860
G1 X105.119 Y88.794 E9.52920
G1 X105.119 Y68.894 E11.91720
G0 F9000 X105.519 Y69.294
G1 F1200 X134.474 Y69.294 E15.39180
G1 X134.474 Y78.594 E16.50780
G1 X131.724 Y78.594 E16.83780
G1 X131.724 Y79.094 E16.89780
G1 X134.474 Y79.094 E17.22780
G1 X134.474 Y88.394 E18.34380
G1 X105.519 Y88.394 E21.81840
G1 X105.519 Y69.294 E24.11040
G10
G0 F9000 X109.319 Y73.094
;TYPE:WALL-INNER
G11
G1 F1200 X130.674 Y73.094 E26.67300
G1 X130.674 Y74.794 E26.87700
G1 X127.924 Y74.794 E27.20700
G1 X127.924 Y82.894 E28.17900
G1 X130.674 Y82.894 E28.50900
G1 X130.674 Y84.594 E28.71300
G1 X109.319 Y84.594 E31.27560
G1 X109.319 Y81.195 E31.68348
G1 X112.949 Y81.195 E32.11908
G1 X112.949 Y75.444 E32.80920
G1 X109.319 Y75.444 E33.24480
G1 X109.319 Y73.094 E33.52680
G0 F9000 X108.919 Y72.694
;TYPE:WALL-OUTER
G1 F1200 X131.074 Y72.694 E36.18540
G1 X131.074 Y75.194 E36.48540
G1 X128.324 Y75.194 E36.81540
G1 X128.324 Y82.494 E37.69140
G1 X131.074 Y82.494 E38.02140
G1 X131.074 Y84.994 E38.32140
G1 X108.919 Y84.994 E40.98000
G1 X108.919 Y80.795 E41.48388
G1 X112.549 Y80.795 E41.91948
G1 X112.549 Y75.844 E42.51360
G1 X108.919 Y75.844 E42.94920
G1 X108.919 Y72.694 E43.32720
G0 F9000 X109.721 Y73.234
;TYPE:SKIN
G1 F900 X111.790 Y75.303 E43.67832
G0 F9000 X112.355 Y75.303
G1 F900 X110.286 Y73.234 E44.02944
G0 F9000 X110.852 Y73.234
G1 F900 X112.921 Y75.303 E44.38056
G0 F9000 X113.088 Y75.470
G1 F900 X122.072 Y84.454 E45.90520
G0 F9000 X122.637 Y84.454
G1 F900 X111.418 Y73.234 E47.80921
G0 F9000 X111.983 Y73.234
G1 F900 X123.203 Y84.454 E49.71331
G0 F9000 X123.769 Y84.454
G1 F900 X112.549 Y73.234 E51.61740
G0 F9000 X113.115 Y73.234
G1 F900 X124.334 Y84.454 E53.52142
G0 F9000 X124.900 Y84.454
G1 F900 X113.680 Y73.234 E55.42551
G0 F9000 X114.246 Y73.234
G1 F900 X125.466 Y84.454 E57.32961
G0 F9000 X126.031 Y84.454
G1 F900 X114.812 Y73.234 E59.23362
G0 F9000 X115.377 Y73.234
G1 F900 X126.597 Y84.454 E61.13772
G0 F9000 X127.163 Y84.454
G1 F900 X115.943 Y73.234 E63.04182
G0 F9000 X116.509 Y73.234
G1 F900 X127.728 Y84.454 E64.94583
G0 F9000 X128.294 Y84.454
G1 F900 X117.074 Y73.234 E66.84993
G0 F9000 X117.640 Y73.234
G1 F900 X128.860 Y84.454 E68.75402
G0 F9000 X129.425 Y84.454
G1 F900 X128.006 Y83.034 E68.99492
G0 F9000 X127.783 Y82.811
G1 F900 X118.206 Y73.234 E70.62019
G0 F9000 X118.772 Y73.234
G1 F900 X127.783 Y82.245 E72.14941
G0 F9000 X127.783 Y81.680
G1 F900 X119.337 Y73.234 E73.58274
G0 F9000 X119.903 Y73.234
G1 F900 X127.783 Y81.114 E74.92002
G0 F9000 X127.783 Y80.548
G1 F900 X120.469 Y73.234 E76.16125
G0 F9000 X121.034 Y73.234
G1 F900 X127.783 Y79.982 E77.30651
G0 F9000 X127.783 Y79.417
G1 F900 X121.600 Y73.234 E78.35580
G0 F9000 X122.166 Y73.234
G1 F900 X127.783 Y78.851 E79.30904
G0 F9000 X127.783 Y78.285
G1 F900 X122.731 Y73.234 E80.16630
G0 F9000 X123.297 Y73.234
G1 F900 X127.783 Y77.720 E80.92760
G0 F9000 X127.783 Y77.154
G1 F900 X123.863 Y73.234 E81.59285
G0 F9000 X124.428 Y73.234
G1 F900 X127.783 Y76.588 E82.16213
G0 F9000 X127.783 Y76.023
G1 F900 X124.994 Y73.234 E82.63544
G0 F9000 X125.560 Y73.234
G1 F900 X127.783 Y75.457 E83.01269
G0 F9000 X127.783 Y74.891
G1 F900 X126.125 Y73.234 E83.29398
G0 F9000 X126.691 Y73.234
G1 F900 X128.110 Y74.653 E83.53479
G0 F9000 X128.676 Y74.653
G1 F900 X127.257 Y73.234 E83.77560
G0 F9000 X127.822 Y73.234
G1 F900 X129.242 Y74.653 E84.01650
G0 F9000 X129.807 Y74.653
G1 F900 X128.388 Y73.234 E84.25731
G0 F9000 X128.954 Y73.234
G1 F900 X130.373 Y74.653 E84.49812
G0 F9000 X130.533 Y74.247
G1 F900 X129.520 Y73.234 E84.67004
G0 F9000 X130.085 Y73.234
G1 F900 X130.533 Y73.681 E84.74598
G0 F9000 X127.983 Y74.853
G0 X127.983 Y82.835
G0 X130.268 Y83.034
G1 F900 X130.533 Y83.298 E84.79087
G0 F9000 X130.533 Y83.864
G1 F900 X129.703 Y83.034 E84.93172
G0 F9000 X129.137 Y83.034
G1 F900 X130.533 Y84.429 E85.16855
G0 F9000 X129.991 Y84.454
G1 F900 X128.571 Y83.034 E85.40953
G0 F9000 X121.506 Y84.454
G1 F900 X113.088 Y76.035 E86.83820
G0 F9000 X113.088 Y76.601
G1 F900 X120.940 Y84.454 E88.17081
G0 F9000 X120.375 Y84.454
G1 F900 X113.088 Y77.167 E89.40745
G0 F9000 X113.088 Y77.732
G1 F900 X119.809 Y84.454 E90.54813
G0 F9000 X119.243 Y84.454
G1 F900 X113.088 Y78.298 E91.59275
G0 F9000 X113.088 Y78.864
G1 F900 X118.677 Y84.454 E92.54132
G0 F9000 X118.112 Y84.454
G1 F900 X113.088 Y79.430 E93.39392
G0 F9000 X113.088 Y79.995
G1 F900 X117.546 Y84.454 E94.15056
G0 F9000 X116.980 Y84.454
G1 F900 X113.088 Y80.561 E94.81114
G0 F9000 X113.088 Y81.127
G1 F900 X116.415 Y84.454 E95.37575
G0 F9000 X115.849 Y84.454
G1 F900 X112.730 Y81.334 E95.90514
G0 F9000 X112.164 Y81.334
G1 F900 X115.283 Y84.454 E96.43454
G0 F9000 X114.718 Y84.454
G1 F900 X111.599 Y81.334 E96.96394
G0 F9000 X111.033 Y81.334
G1 F900 X114.152 Y84.454 E97.49333
G0 F9000 X113.586 Y84.454
G1 F900 X110.467 Y81.334 E98.02273
G0 F9000 X109.902 Y81.334
G1 F900 X113.021 Y84.454 E98.55213
G0 F9000 X112.455 Y84.454
G1 F900 X109.458 Y81.456 E99.06082
G0 F9000 X109.458 Y82.022
G1 F900 X111.889 Y84.454 E99.47346
G0 F9000 X111.324 Y84.454
G1 F900 X109.458 Y82.587 E99.79021
G0 F9000 X109.458 Y83.153
G1 F900 X110.758 Y84.454 E100.01092
G0 F9000 X110.192 Y84.454
G1 F900 X109.458 Y83.719 E100.13557
G0 F9000 X109.458 Y84.285
G1 F900 X109.627 Y84.454 E100.16425
G0 F9000 X112.890 Y81.136
G0 X112.890 Y75.503
G0 X109.527 Y75.303
G1 F900 X109.458 Y75.234 E100.17596
G0 F9000 X109.458 Y74.668
G1 F900 X110.092 Y75.303 E100.28363
G0 F9000 X110.658 Y75.303
G1 F900 X109.458 Y74.102 E100.48736
G0 F9000 X109.458 Y73.536
G1 F900 X111.224 Y75.303 E100.78715
;LAYER:1
M106 S127
G0 F9000 X112.949 Y75.444 Z0.400
;TYPE:WALL-INNER
G1 F1800 X109.319 Y75.444 E100.93235
G1 X109.319 Y73.094 E101.02635
G1 X130.674 Y73.094 E101.88055
G1 X130.674 Y74.794 E101.94855
G1 X127.924 Y74.794 E102.05855
G1 X127.924 Y82.894 E102.38255
G1 X130.674 Y82.894 E102.49255
G1 X130.674 Y84.594 E102.56055
G1 X109.319 Y84.594 E103.41475
G1 X109.319 Y81.195 E103.55071
G1 X112.949 Y81.195 E103.69591
G1 X112.949 Y75.444 E103.92595
G0 F9000 X112.549 Y75.844
;TYPE:WALL-OUTER
G1 F1320 X108.919 Y75.844 E104.07115
G1 X108.919 Y72.694 E104.19715
G1 X131.074 Y72.694 E105.08335
G1 X131.074 Y75.194 E105.18335
G1 X128.324 Y75.194 E105.29335
G1 X128.324 Y82.494 E105.58535
G1 X131.074 Y82.494 E105.69535
G1 X131.074 Y84.994 E105.79535
G1 X108.919 Y84.994 E106.68155
G1 X108.919 Y80.795 E106.84951
G1 X112.549 Y80.795 E106.99471
G1 X112.549 Y75.844 E107.19275
G0 F9000 X112.786 Y75.304
;TYPE:SKIN
G1 F900 X114.856 Y73.233 E107.30988
G0 F9000 X114.291 Y73.233
G1 F900 X112.220 Y75.304 E107.42703
G0 F9000 X111.654 Y75.304
G1 F900 X113.725 Y73.233 E107.54418
G0 F9000 X113.159 Y73.233
G1 F900 X111.089 Y75.304 E107.66131
G0 F9000 X110.523 Y75.304
G1 F900 X112.594 Y73.233 E107.77846
G0 F9000 X112.028 Y73.233
G1 F900 X109.957 Y75.304 E107.89561
G0 F9000 X109.458 Y75.237
G1 F900 X111.462 Y73.233 E108.00898
G0 F9000 X110.896 Y73.233
G1 F900 X109.458 Y74.671 E108.09032
G0 F9000 X109.458 Y74.106
G1 F900 X110.331 Y73.233 E108.13971
G0 F9000 X109.765 Y73.233
G1 F900 X109.458 Y73.540 E108.15707
G0 F9000 X113.088 Y75.567
G1 F900 X115.422 Y73.233 E108.28910
G0 F9000 X115.988 Y73.233
G1 F900 X113.088 Y76.133 E108.45315
G0 F9000 X113.088 Y76.699
G1 F900 X116.553 Y73.233 E108.64919
G0 F9000 X117.119 Y73.233
G1 F900 X113.088 Y77.264 E108.87722
G0 F9000 X113.088 Y77.830
G1 F900 X117.685 Y73.233 E109.13727
G0 F9000 X118.250 Y73.233
G1 F900 X113.088 Y78.396 E109.42930
G0 F9000 X113.088 Y78.961
G1 F900 X118.816 Y73.233 E109.75333
G0 F9000 X119.382 Y73.233
G1 F900 X113.088 Y79.527 E110.10937
G0 F9000 X113.088 Y80.093
G1 F900 X119.947 Y73.233 E110.49740
G0 F9000 X120.513 Y73.233
G1 F900 X113.088 Y80.658 E110.91742
G0 F9000 X113.088 Y81.224
G1 F900 X121.079 Y73.233 E111.36946
G0 F9000 X121.644 Y73.233
G1 F900 X110.424 Y84.454 E112.00419
G0 F9000 X110.990 Y84.454
G1 F900 X122.210 Y73.233 E112.63891
G0 F9000 X122.776 Y73.233
G1 F900 X111.555 Y84.454 E113.27367
G0 F9000 X112.121 Y84.454
G1 F900 X123.342 Y73.233 E113.90843
G0 F9000 X123.907 Y73.233
G1 F900 X112.687 Y84.454 E114.54315
G0 F9000 X113.253 Y84.454
G1 F900 X124.473 Y73.233 E115.17788
G0 F9000 X125.039 Y73.233
G1 F900 X113.818 Y84.454 E115.81264
G0 F9000 X114.384 Y84.454
G1 F900 X125.604 Y73.233 E116.44736
G0 F9000 X126.170 Y73.233
G1 F900 X114.950 Y84.454 E117.08209
G0 F9000 X115.515 Y84.454
G1 F900 X126.736 Y73.233 E117.71685
G0 F9000 X127.301 Y73.233
G1 F900 X116.081 Y84.454 E118.35157
G0 F9000 X116.647 Y84.454
G1 F900 X127.867 Y73.233 E118.98630
G0 F9000 X128.433 Y73.233
G1 F900 X117.212 Y84.454 E119.62106
G0 F9000 X117.778 Y84.454
G1 F900 X128.998 Y73.233 E120.25578
G0 F9000 X129.564 Y73.233
G1 F900 X128.144 Y74.654 E120.33614
G0 F9000 X127.783 Y75.014
G1 F900 X118.344 Y84.454 E120.87012
G0 F9000 X118.909 Y84.454
G1 F900 X127.783 Y75.580 E121.37211
G0 F9000 X127.783 Y76.146
G1 F900 X119.475 Y84.454 E121.84208
G0 F9000 X112.977 Y81.334
G1 F900 X109.858 Y84.454 E122.01854
G0 F9000 X109.458 Y84.288
G1 F900 X112.412 Y81.334 E122.18565
G0 F9000 X111.846 Y81.334
G1 F900 X109.458 Y83.722 E122.32073
G0 F9000 X109.458 Y83.157
G1 F900 X111.280 Y81.334 E122.42383
G0 F9000 X110.715 Y81.334
G1 F900 X109.458 Y82.591 E122.49494
G0 F9000 X109.458 Y82.025
G1 F900 X110.149 Y81.334 E122.53403
G0 F9000 X109.583 Y81.334
G1 F900 X109.458 Y81.460 E122.54113
G0 F9000 X120.041 Y84.454
G1 F900 X127.783 Y76.711 E122.97911
G0 F9000 X127.783 Y77.277
G1 F900 X120.606 Y84.454 E123.38510
G0 F9000 X121.172 Y84.454
G1 F900 X127.783 Y77.843 E123.75907
G0 F9000 X127.783 Y78.408
G1 F900 X121.738 Y84.454 E124.10106
G0 F9000 X122.304 Y84.454
G1 F900 X127.783 Y78.974 E124.41103
G0 F9000 X127.783 Y79.540
G1 F900 X122.869 Y84.454 E124.68900
G0 F9000 X123.435 Y84.454
G1 F900 X127.783 Y80.106 E124.93496
G0 F9000 X127.783 Y80.671
G1 F900 X124.001 Y84.454 E125.14893
G0 F9000 X124.566 Y84.454
G1 F900 X127.783 Y81.237 E125.33092
G0 F9000 X127.783 Y81.803
G1 F900 X125.132 Y84.454 E125.48088
G0 F9000 X125.698 Y84.454
G1 F900 X127.783 Y82.368 E125.59885
G0 F9000 X127.783 Y82.934
G1 F900 X126.263 Y84.454 E125.68484
G0 F9000 X126.829 Y84.454
G1 F900 X128.250 Y83.033 E125.76522
G0 F9000 X128.815 Y83.033
G1 F900 X127.395 Y84.454 E125.84558
G0 F9000 X127.960 Y84.454
G1 F900 X129.381 Y83.033 E125.92596
G0 F9000 X129.947 Y83.033
G1 F900 X128.526 Y84.454 E126.00634
G0 F9000 X129.092 Y84.454
G1 F900 X130.512 Y83.033 E126.08670
G0 F9000 X130.533 Y83.578
G1 F900 X129.657 Y84.454 E126.13625
G0 F9000 X130.223 Y84.454
G1 F900 X130.533 Y84.144 E126.15379
G0 F9000 X127.983 Y82.835
G0 X127.983 Y74.853
G0 X130.406 Y74.654
G1 F900 X130.533 Y74.527 E126.16097
G0 F9000 X130.533 Y73.961
G1 F900 X129.841 Y74.654 E126.20015
G0 F9000 X129.275 Y74.654
G1 F900 X130.533 Y73.396 E126.27131
G0 F9000 X130.130 Y73.233
G1 F900 X128.709 Y74.654 E126.35170
;LAYER:2
M106 S255
G0 F9000 X127.924 Y74.794 Z0.500
;TYPE:WALL-INNER
G1 F2400 X127.924 Y82.894 E126.67570
G1 X130.674 Y82.894 E126.78570
G1 X130.674 Y84.594 E126.85370
G1 X109.319 Y84.594 E127.70790
G1 X109.319 Y81.195 E127.84386
G1 X112.949 Y81.195 E127.98906
G1 X112.949 Y75.444 E128.21910
G1 X109.319 Y75.444 E128.36430
G1 X109.319 Y73.094 E128.45830
G1 X130.674 Y73.094 E129.31250
G1 X130.674 Y74.794 E129.38050
G1 X127.924 Y74.794 E129.49050
G0 F9000 X128.324 Y75.194
;TYPE:WALL-OUTER
G1 F1500 X128.324 Y82.494 E129.78250
G1 X131.074 Y82.494 E129.89250
G1 X131.074 Y84.994 E129.99250
G1 X108.919 Y84.994 E130.87870
G1 X108.919 Y80.795 E131.04666
G1 X112.549 Y80.795 E131.19186
G1 X112.549 Y75.844 E131.38990
G1 X108.919 Y75.844 E131.53510
G1 X108.919 Y72.694 E131.66110
G1 X131.074 Y72.694 E132.54730
G1 X131.074 Y75.194 E132.64730
G1 X128.324 Y75.194 E132.75730
G0 F9000 X128.110 Y74.653
;TYPE:SKIN
G1 F900 X126.691 Y73.234 E132.83757
G0 F9000 X127.257 Y73.234
G1 F900 X128.676 Y74.653 E132.91784
G0 F9000 X129.242 Y74.653
G1 F900 X127.822 Y73.234 E132.99814
G0 F9000 X128.388 Y73.234
G1 F900 X129.807 Y74.653 E133.07841
G0 F9000 X130.373 Y74.653
G1 F900 X128.954 Y73.234 E133.15868
G0 F9000 X129.520 Y73.234
G1 F900 X130.533 Y74.247 E133.21598
G0 F9000 X130.533 Y73.681
G1 F900 X130.085 Y73.234 E133.24130
G0 F9000 X127.783 Y74.891
G1 F900 X126.125 Y73.234 E133.33506
G0 F9000 X125.560 Y73.234
G1 F900 X127.783 Y75.457 E133.46081
G0 F9000 X127.783 Y76.023
G1 F900 X124.994 Y73.234 E133.61858
G0 F9000 X124.428 Y73.234
G1 F900 X127.783 Y76.588 E133.80834
G0 F9000 X127.783 Y77.154
G1 F900 X123.863 Y73.234 E134.03009
G0 F9000 X123.297 Y73.234
G1 F900 X127.783 Y77.720 E134.28385
G0 F9000 X127.783 Y78.285
G1 F900 X122.731 Y73.234 E134.56961
G0 F9000 X122.166 Y73.234
G1 F900 X127.783 Y78.851 E134.88736
G0 F9000 X127.783 Y79.417
G1 F900 X121.600 Y73.234 E135.23712
G0 F9000 X121.034 Y73.234
G1 F900 X127.783 Y79.982 E135.61887
G0 F9000 X127.783 Y80.548
G1 F900 X120.469 Y73.234 E136.03261
G0 F9000 X119.903 Y73.234
G1 F900 X127.783 Y81.114 E136.47837
G0 F9000 X127.783 Y81.680
G1 F900 X119.337 Y73.234 E136.95615
G0 F9000 X118.772 Y73.234
G1 F900 X127.783 Y82.245 E137.46589
G0 F9000 X127.783 Y82.811
G1 F900 X118.206 Y73.234 E138.00765
G0 F9000 X117.640 Y73.234
G1 F900 X128.860 Y84.454 E138.64235
G0 F9000 X129.425 Y84.454
G1 F900 X128.006 Y83.034 E138.72265
G0 F9000 X128.571 Y83.034
G1 F900 X129.991 Y84.454 E138.80297
G0 F9000 X130.533 Y84.429
G1 F900 X129.137 Y83.034 E138.88191
G0 F9000 X129.703 Y83.034
G1 F900 X130.533 Y83.864 E138.92887
G0 F9000 X130.533 Y83.298
G1 F900 X130.268 Y83.034 E138.94383
G0 F9000 X128.294 Y84.454
G1 F900 X117.074 Y73.234 E139.57853
G0 F9000 X116.509 Y73.234
G1 F900 X127.728 Y84.454 E140.21320
G0 F9000 X127.163 Y84.454
G1 F900 X115.943 Y73.234 E140.84790
G0 F9000 X115.377 Y73.234
G1 F900 X126.597 Y84.454 E141.48260
G0 F9000 X126.031 Y84.454
G1 F900 X114.812 Y73.234 E142.11727
G0 F9000 X114.246 Y73.234
G1 F900 X125.466 Y84.454 E142.75197
G0 F9000 X124.900 Y84.454
G1 F900 X113.680 Y73.234 E143.38667
G0 F9000 X113.115 Y73.234
G1 F900 X124.334 Y84.454 E144.02134
G0 F9000 X123.769 Y84.454
G1 F900 X112.549 Y73.234 E144.65604
G0 F9000 X111.983 Y73.234
G1 F900 X123.203 Y84.454 E145.29073
G0 F9000 X122.637 Y84.454
G1 F900 X111.418 Y73.234 E145.92541
G0 F9000 X110.852 Y73.234
G1 F900 X112.921 Y75.303 E146.04245
G0 F9000 X113.088 Y75.470
G1 F900 X122.072 Y84.454 E146.55066
G0 F9000 X121.506 Y84.454
G1 F900 X113.088 Y76.035 E147.02688
G0 F9000 X113.088 Y76.601
G1 F900 X120.940 Y84.454 E147.47108
G0 F9000 X120.375 Y84.454
G1 F900 X113.088 Y77.167 E147.88330
G0 F9000 X113.088 Y77.732
G1 F900 X119.809 Y84.454 E148.26352
G0 F9000 X119.243 Y84.454
G1 F900 X113.088 Y78.298 E148.61173
G0 F9000 X113.088 Y78.864
G1 F900 X118.677 Y84.454 E148.92792
G0 F9000 X118.112 Y84.454
G1 F900 X113.088 Y79.430 E149.21212
G0 F9000 X113.088 Y79.995
G1 F900 X117.546 Y84.454 E149.46433
G0 F9000 X116.980 Y84.454
G1 F900 X113.088 Y80.561 E149.68453
G0 F9000 X113.088 Y81.127
G1 F900 X116.415 Y84.454 E149.87273
G0 F9000 X115.849 Y84.454
G1 F900 X112.730 Y81.334 E150.04920
G0 F9000 X112.164 Y81.334
G1 F900 X115.283 Y84.454 E150.22566
G0 F9000 X114.718 Y84.454
G1 F900 X111.599 Y81.334 E150.40213
G0 F9000 X111.033 Y81.334
G1 F900 X114.152 Y84.454 E150.57859
G0 F9000 X113.586 Y84.454
G1 F900 X110.467 Y81.334 E150.75506
G0 F9000 X109.902 Y81.334
G1 F900 X113.021 Y84.454 E150.93152
G0 F9000 X112.455 Y84.454
G1 F900 X109.458 Y81.456 E151.10109
G0 F9000 X109.458 Y82.022
G1 F900 X111.889 Y84.454 E151.23863
G0 F9000 X111.324 Y84.454
G1 F900 X109.458 Y82.587 E151.34422
G0 F9000 X109.458 Y83.153
G1 F900 X110.758 Y84.454 E151.41779
G0 F9000 X110.192 Y84.454
G1 F900 X109.458 Y83.719 E151.45934
G0 F9000 X109.458 Y84.285
G1 F900 X109.627 Y84.454 E151.46890
G0 F9000 X112.890 Y81.136
G0 X112.890 Y75.503
G0 X109.527 Y75.303
G1 F900 X109.458 Y75.234 E151.47280
G0 F9000 X109.458 Y74.668
G1 F900 X110.092 Y75.303 E151.50869
G0 F9000 X110.658 Y75.303
G1 F900 X109.458 Y74.102 E151.57660
G0 F9000 X109.458 Y73.536
G1 F900 X111.224 Y75.303 E151.67653
G0 F9000 X111.790 Y75.303
G1 F900 X109.721 Y73.234 E151.79357
