;FLAVOR:UltiGCode
;TIME:3841
;MATERIAL:1416
;MATERIAL2:0

;Layer count: 19
;LAYER:0
M107
G0 F9000 X96.649 Y98.185 Z0.300
;TYPE:SKIRT
G1 F1200 X107.214 Y98.185 E1.26780
G1 X107.214 Y96.685 E1.44780
G1 X117.164 Y96.685 E2.64180
G1 X117.164 Y98.185 E2.82180
G1 X120.214 Y98.185 E3.18780
G1 X120.214 Y96.685 E3.36780
G1 X130.164 Y96.685 E4.56180
G1 X130.164 Y98.185 E4.74180
G1 X133.349 Y98.185 E5.12400
G1 X133.349 Y118.835 E7.60200
G1 X130.164 Y118.835 E7.98420
G1 X130.164 Y120.335 E8.16420
G1 X120.214 Y120.335 E9.35820
G1 X120.214 Y118.835 E9.53820
G1 X117.164 Y118.835 E9.90420
G1 X117.164 Y120.335 E10.08420
G1 X107.214 Y120.335 E11.27820
G1 X107.214 Y118.835 E11.45820
G1 X96.649 Y118.835 E12.72600
G1 X96.649 Y98.185 E15.20400
G0 F9000 X97.049 Y98.585
G1 F1200 X107.614 Y98.585 E16.47180
G1 X107.614 Y97.085 E16.65180
G1 X116.764 Y97.085 E17.74980
G1 X116.764 Y98.585 E17.92980
G1 X120.614 Y98.585 E18.39180
G1 X120.614 Y97.085 E18.57180
G1 X129.764 Y97.085 E19.66980
G1 X129.764 Y98.585 E19.84980
G1 X132.949 Y98.585 E20.23200
G1 X132.949 Y118.435 E22.61400
G1 X129.764 Y118.435 E22.99620
G1 X129.764 Y119.935 E23.17620
G1 X120.614 Y119.935 E24.27420
G1 X120.614 Y118.435 E24.45420
G1 X116.764 Y118.435 E24.91620
G1 X116.764 Y119.935 E25.09620
G1 X107.614 Y119.935 E26.19420
G1 X107.614 Y118.435 E26.37420
G1 X97.049 Y118.435 E27.64200
G1 X97.049 Y98.585 E30.02400
G10
G0 F9000 X103.849 Y102.385
;TYPE:WALL-INNER
G11
G1 F1200 X111.414 Y102.385 E30.93180
G1 X111.414 Y100.885 E31.11180
G1 X112.964 Y100.885 E31.29780
G1 X112.964 Y102.385 E31.47780
G1 X124.414 Y102.385 E32.85180
G1 X124.414 Y100.885 E33.03180
G1 X125.964 Y100.885 E33.21780
G1 X125.964 Y102.385 E33.39780
G1 X129.149 Y102.385 E33.78000
G1 X129.149 Y114.635 E35.25000
G1 X125.964 Y114.635 E35.63220
G1 X125.964 Y116.135 E35.81220
G1 X124.414 Y116.135 E35.99820
G1 X124.414 Y114.635 E36.17820
G1 X112.964 Y114.635 E37.55220
G1 X112.964 Y116.135 E37.73220
G1 X111.414 Y116.135 E37.91820
G1 X111.414 Y114.635 E38.09820
G1 X103.849 Y114.635 E39.00600
G1 X103.849 Y102.385 E40.47600
G0 F9000 X103.449 Y102.310
;TYPE:WALL-OUTER
G1 F1200 X100.929 Y102.310 E40.77840
G1 X100.929 Y114.710 E42.26640
G1 X103.449 Y114.710 E42.56880
G1 X103.449 Y102.310 E44.05680
G10
G0 F9000 X100.449 Y101.985
G11
G1 F1200 X111.014 Y101.985 E45.32460
G1 X111.014 Y100.485 E45.50460
G1 X113.364 Y100.485 E45.78660
G1 X113.364 Y101.985 E45.96660
G1 X124.014 Y101.985 E47.24460
G1 X124.014 Y100.485 E47.42460
G1 X126.364 Y100.485 E47.70660
G1 X126.364 Y101.985 E47.88660
G1 X129.549 Y101.985 E48.26880
G1 X129.549 Y115.035 E49.83480
G1 X126.364 Y115.035 E50.21700
G1 X126.364 Y116.535 E50.39700
G1 X124.014 Y116.535 E50.67900
G1 X124.014 Y115.035 E50.85900
G1 X113.364 Y115.035 E52.13700
G1 X113.364 Y116.535 E52.31700
G1 X111.014 Y116.535 E52.59900
G1 X111.014 Y115.035 E52.77900
G1 X100.449 Y115.035 E54.04680
G1 X100.449 Y101.985 E55.61280
G10
G0 F9000 X103.988 Y102.574
;TYPE:SKIN
G11
G1 F900 X115.908 Y114.494 E57.63569
G0 F9000 X116.473 Y114.494
G1 F900 X104.504 Y102.524 E59.66698
G0 F9000 X105.070 Y102.524
G1 F900 X117.039 Y114.494 E61.69827
G0 F9000 X117.605 Y114.494
G1 F900 X105.636 Y102.524 E63.72957
G0 F9000 X106.201 Y102.524
G1 F900 X118.170 Y114.494 E65.76086
G0 F9000 X118.737 Y114.494
G1 F900 X106.767 Y102.524 E67.79223
G0 F9000 X107.333 Y102.524
G1 F900 X119.303 Y114.494 E69.82361
G0 F9000 X119.868 Y114.494
G1 F900 X107.898 Y102.524 E71.85499
G0 F9000 X108.464 Y102.524
G1 F900 X120.434 Y114.494 E73.88636
G0 F9000 X121.000 Y114.494
G1 F900 X109.030 Y102.524 E75.91774
G0 F9000 X109.595 Y102.524
G1 F900 X121.565 Y114.494 E77.94912
G0 F9000 X122.131 Y114.494
G1 F900 X110.161 Y102.524 E79.98049
G0 F9000 X110.727 Y102.524
G1 F900 X122.697 Y114.494 E82.01187
G0 F9000 X123.262 Y114.494
G1 F900 X111.292 Y102.524 E84.04324
G0 F9000 X111.553 Y102.219
G1 F900 X123.828 Y114.494 E86.12638
G0 F9000 X124.394 Y114.494
G1 F900 X111.553 Y101.653 E88.30557
G0 F9000 X111.553 Y101.087
G1 F900 X112.823 Y102.358 E88.52118
G0 F9000 X112.990 Y102.525
G1 F900 X125.823 Y115.358 E90.69901
G0 F9000 X125.823 Y115.923
G1 F900 X124.553 Y114.653 E90.91454
G0 F9000 X124.553 Y115.219
G1 F900 X125.328 Y115.994 E91.04606
G0 F9000 X124.762 Y115.994
G1 F900 X124.553 Y115.785 E91.08153
G0 F9000 X125.823 Y114.792
G1 F900 X113.556 Y102.525 E93.16331
G0 F9000 X114.122 Y102.525
G1 F900 X126.091 Y114.495 E95.19460
G0 F9000 X126.657 Y114.495
G1 F900 X114.687 Y102.525 E97.22598
G0 F9000 X115.253 Y102.525
G1 F900 X127.223 Y114.495 E99.25735
G0 F9000 X127.789 Y114.495
G1 F900 X115.819 Y102.525 E101.28873
G0 F9000 X116.384 Y102.525
G1 F900 X128.354 Y114.495 E103.32011
G0 F9000 X128.920 Y114.495
G1 F900 X116.950 Y102.525 E105.35148
G0 F9000 X117.516 Y102.525
G1 F900 X129.008 Y114.018 E107.30182
G0 F9000 X129.008 Y113.452
G1 F900 X118.081 Y102.525 E109.15620
G0 F9000 X118.647 Y102.525
G1 F900 X129.008 Y112.886 E110.91452
G0 F9000 X129.008 Y112.321
G1 F900 X119.213 Y102.525 E112.57687
G0 F9000 X119.778 Y102.525
G1 F900 X129.008 Y111.755 E114.14325
G0 F9000 X129.008 Y111.189
G1 F900 X120.344 Y102.525 E115.61358
G0 F9000 X120.910 Y102.525
G1 F900 X129.008 Y110.624 E116.98794
G0 F9000 X129.008 Y110.058
G1 F900 X121.475 Y102.525 E118.26634
G0 F9000 X122.041 Y102.525
G1 F900 X129.008 Y109.492 E119.44867
G0 F9000 X129.008 Y108.926
G1 F900 X122.607 Y102.525 E120.53496
G0 F9000 X123.173 Y102.525
G1 F900 X129.008 Y108.361 E121.52528
G0 F9000 X129.008 Y107.795
G1 F900 X123.738 Y102.525 E122.41963
G0 F9000 X124.304 Y102.525
G1 F900 X129.008 Y107.229 E123.21792
G0 F9000 X129.008 Y106.664
G1 F900 X124.553 Y102.208 E123.97405
G0 F9000 X124.553 Y101.643
G1 F900 X129.008 Y106.098 E124.73008
G0 F9000 X129.008 Y105.532
G1 F900 X126.001 Y102.525 E125.24039
G0 F9000 X125.823 Y102.347
G1 F900 X124.553 Y101.077 E125.45591
G0 F9000 X125.066 Y101.025
G1 F900 X125.823 Y101.781 E125.58430
G0 F9000 X125.823 Y101.215
G1 F900 X125.632 Y101.025 E125.61663
G0 F9000 X126.023 Y102.326
G0 X126.567 Y102.525
G1 F900 X129.008 Y104.967 E126.03096
G0 F9000 X129.008 Y104.401
G1 F900 X127.132 Y102.525 E126.34933
G0 F9000 X127.698 Y102.525
G1 F900 X129.008 Y103.835 E126.57164
G0 F9000 X129.008 Y103.270
G1 F900 X128.264 Y102.525 E126.69799
G0 F9000 X128.829 Y102.525
G1 F900 X129.008 Y102.704 E126.72837
G0 F9000 X113.023 Y102.326
G0 X112.823 Y101.792
G1 F900 X112.055 Y101.025 E126.85862
G0 F9000 X112.621 Y101.025
G1 F900 X112.823 Y101.227 E126.89290
G0 F9000 X111.355 Y102.326
G0 X103.988 Y103.140
G1 F900 X115.342 Y114.494 E128.81974
G0 F9000 X114.776 Y114.494
G1 F900 X103.988 Y103.705 E130.65060
G0 F9000 X103.988 Y104.271
G1 F900 X114.211 Y114.494 E132.38550
G0 F9000 X113.645 Y114.494
G1 F900 X103.988 Y104.837 E134.02435
G0 F9000 X103.988 Y105.402
G1 F900 X113.079 Y114.494 E135.56723
G0 F9000 X112.823 Y114.803
G1 F900 X103.988 Y105.968 E137.06658
G0 F9000 X103.988 Y106.534
G1 F900 X112.823 Y115.369 E138.56593
G0 F9000 X112.823 Y115.935
G1 F900 X111.553 Y114.665 E138.78146
G0 F9000 X111.382 Y114.494
G1 F900 X103.988 Y107.099 E140.03634
G0 F9000 X103.988 Y107.665
G1 F900 X110.817 Y114.494 E141.19526
G0 F9000 X110.251 Y114.494
G1 F900 X103.988 Y108.231 E142.25813
G0 F9000 X103.988 Y108.796
G1 F900 X109.685 Y114.494 E143.22503
G0 F9000 X109.120 Y114.494
G1 F900 X103.988 Y109.362 E144.09596
G0 F9000 X103.988 Y109.928
G1 F900 X108.554 Y114.494 E144.87083
G0 F9000 X107.988 Y114.494
G1 F900 X103.988 Y110.493 E145.54974
G0 F9000 X103.988 Y111.059
G1 F900 X107.422 Y114.494 E146.13259
G0 F9000 X106.857 Y114.494
G1 F900 X103.988 Y111.625 E146.61948
G0 F9000 X103.988 Y112.190
G1 F900 X106.291 Y114.494 E147.01040
G0 F9000 X105.725 Y114.494
G1 F900 X103.988 Y112.756 E147.30526
G0 F9000 X103.988 Y113.322
G1 F900 X105.160 Y114.494 E147.50415
G0 F9000 X104.594 Y114.494
G1 F900 X103.988 Y113.888 E147.60700
G0 F9000 X111.355 Y114.694
G0 X111.553 Y115.230
G1 F900 X112.317 Y115.994 E147.73665
G0 F9000 X111.751 Y115.994
G1 F900 X111.553 Y115.796 E147.77025
;LAYER:1
M106 S51
G0 F9000 X111.414 Y114.635 Z0.340
;TYPE:WALL-INNER
G1 F1800 X103.849 Y114.635 E147.89129
G1 X103.849 Y102.385 E148.08729
G1 X111.414 Y102.385 E148.20833
G1 X111.414 Y100.885 E148.23233
G1 X112.964 Y100.885 E148.25713
G1 X112.964 Y102.385 E148.28113
G1 X124.414 Y102.385 E148.46433
G1 X124.414 Y100.885 E148.48833
G1 X125.964 Y100.885 E148.51313
G1 X125.964 Y102.385 E148.53713
G1 X129.149 Y102.385 E148.58809
G1 X129.149 Y114.635 E148.78409
G1 X125.964 Y114.635 E148.83505
G1 X125.964 Y116.135 E148.85905
G1 X124.414 Y116.135 E148.88385
G1 X124.414 Y114.635 E148.90785
G1 X112.964 Y114.635 E149.09105
G1 X112.964 Y116.135 E149.11505
G1 X111.414 Y116.135 E149.13985
G1 X111.414 Y114.635 E149.16385
G0 F9000 X111.014 Y115.035
;TYPE:WALL-OUTER
G1 F1320 X100.449 Y115.035 E149.33289
G1 X100.449 Y101.985 E149.54169
G1 X111.014 Y101.985 E149.71073
G1 X111.014 Y100.485 E149.73473
G1 X113.364 Y100.485 E149.77233
G1 X113.364 Y101.985 E149.79633
G1 X124.014 Y101.985 E149.96673
G1 X124.014 Y100.485 E149.99073
G1 X126.364 Y100.485 E150.02833
G1 X126.364 Y101.985 E150.05233
G1 X129.549 Y101.985 E150.10329
G1 X129.549 Y115.035 E150.31209
G1 X126.364 Y115.035 E150.36305
G1 X126.364 Y116.535 E150.38705
G1 X124.014 Y116.535 E150.42465
G1 X124.014 Y115.035 E150.44865
G1 X113.364 Y115.035 E150.61905
G1 X113.364 Y116.535 E150.64305
G1 X111.014 Y116.535 E150.68065
G1 X111.014 Y115.035 E150.70465
G0 F9000 X111.314 Y115.035
G0 X111.355 Y114.694
G0 X103.749 Y114.710
G0 X103.449 Y114.710
G1 F1320 X103.449 Y102.310 E150.90305
G1 X100.929 Y102.310 E150.94337
G1 X100.929 Y114.710 E151.14177
G1 X103.449 Y114.710 E151.18209
G0 F9000 X104.143 Y114.494
;TYPE:SKIN
G1 F900 X116.112 Y102.524 E151.45293
G0 F9000 X116.678 Y102.524
G1 F900 X104.709 Y114.494 E151.72377
G0 F9000 X105.274 Y114.494
G1 F900 X117.243 Y102.524 E151.99461
G0 F9000 X117.809 Y102.524
G1 F900 X105.840 Y114.494 E152.26545
G0 F9000 X106.406 Y114.494
G1 F900 X118.375 Y102.524 E152.53629
G0 F9000 X118.941 Y102.524
G1 F900 X106.971 Y114.494 E152.80714
G0 F9000 X107.537 Y114.494
G1 F900 X119.506 Y102.524 E153.07798
G0 F9000 X120.072 Y102.524
G1 F900 X108.103 Y114.494 E153.34882
G0 F9000 X108.668 Y114.494
G1 F900 X120.638 Y102.524 E153.61967
G0 F9000 X121.203 Y102.524
G1 F900 X109.234 Y114.494 E153.89050
G0 F9000 X109.800 Y114.494
G1 F900 X121.769 Y102.524 E154.16134
G0 F9000 X122.335 Y102.524
G1 F900 X110.365 Y114.494 E154.43219
G0 F9000 X110.931 Y114.494
G1 F900 X122.900 Y102.524 E154.70303
G0 F9000 X123.466 Y102.524
G1 F900 X111.497 Y114.494 E154.97387
G0 F9000 X111.553 Y115.003
G1 F900 X124.032 Y102.524 E155.25624
G0 F9000 X124.553 Y102.003
G1 F900 X125.531 Y101.025 E155.27837
G0 F9000 X125.823 Y101.299
G1 F900 X111.553 Y115.568 E155.60125
G0 F9000 X111.693 Y115.994
G1 F900 X112.823 Y114.864 E155.62682
G0 F9000 X113.193 Y114.494
G1 F900 X125.823 Y101.865 E155.91259
G0 F9000 X125.823 Y102.430
G1 F900 X113.759 Y114.494 E156.18557
G0 F9000 X114.325 Y114.494
G1 F900 X126.294 Y102.524 E156.45641
G0 F9000 X126.860 Y102.524
G1 F900 X114.890 Y114.494 E156.72726
G0 F9000 X115.456 Y114.494
G1 F900 X127.426 Y102.524 E156.99811
G0 F9000 X127.991 Y102.524
G1 F900 X116.022 Y114.494 E157.26895
G0 F9000 X116.587 Y114.494
G1 F900 X128.557 Y102.524 E157.53980
G0 F9000 X129.008 Y102.640
G1 F900 X117.153 Y114.494 E157.80803
G0 F9000 X117.719 Y114.494
G1 F900 X129.008 Y103.205 E158.06348
G0 F9000 X129.008 Y103.771
G1 F900 X118.284 Y114.494 E158.30612
G0 F9000 X118.849 Y114.495
G1 F900 X129.008 Y104.337 E158.53598
G0 F9000 X129.008 Y104.902
G1 F900 X119.415 Y114.495 E158.75305
G0 F9000 X119.981 Y114.495
G1 F900 X129.008 Y105.468 E158.95730
G0 F9000 X129.008 Y106.034
G1 F900 X120.546 Y114.495 E159.14877
G0 F9000 X121.112 Y114.495
G1 F900 X129.008 Y106.599 E159.32743
G0 F9000 X129.008 Y107.165
G1 F900 X121.678 Y114.495 E159.49329
G0 F9000 X122.243 Y114.495
G1 F900 X129.008 Y107.731 E159.64635
G0 F9000 X129.008 Y108.296
G1 F900 X122.809 Y114.495 E159.78662
G0 F9000 X123.375 Y114.495
G1 F900 X129.008 Y108.862 E159.91408
G0 F9000 X129.008 Y109.428
G1 F900 X123.940 Y114.495 E160.02875
G0 F9000 X124.506 Y114.495
G1 F900 X129.008 Y109.993 E160.13061
G0 F9000 X129.008 Y110.559
G1 F900 X124.553 Y115.014 E160.23142
G0 F9000 X124.553 Y115.580
G1 F900 X129.008 Y111.125 E160.33222
G0 F9000 X129.008 Y111.691
G1 F900 X126.203 Y114.495 E160.39568
G0 F9000 X125.823 Y114.875
G1 F900 X124.704 Y115.994 E160.42100
G0 F9000 X125.270 Y115.994
G1 F900 X125.823 Y115.441 E160.43352
G0 F9000 X126.769 Y114.495
G1 F900 X129.008 Y112.256 E160.48418
G0 F9000 X129.008 Y112.822
G1 F900 X127.335 Y114.495 E160.52203
G0 F9000 X127.900 Y114.495
G1 F900 X129.008 Y113.388 E160.54709
G0 F9000 X129.008 Y113.953
G1 F900 X128.466 Y114.495 E160.55936
G0 F9000 X124.553 Y101.438
G1 F900 X124.966 Y101.025 E160.56870
G0 F9000 X124.355 Y102.326
G0 X115.546 Y102.524
G1 F900 X103.989 Y114.082 E160.83022
G0 F9000 X103.989 Y113.516
G1 F900 X114.981 Y102.524 E161.07894
G0 F9000 X114.415 Y102.524
G1 F900 X103.989 Y112.951 E161.31487
G0 F9000 X103.989 Y112.385
G1 F900 X113.849 Y102.524 E161.53798
G0 F9000 X113.284 Y102.524
G1 F900 X103.989 Y111.819 E161.74831
G0 F9000 X103.989 Y111.254
G1 F900 X112.823 Y102.420 E161.94820
G0 F9000 X112.823 Y101.854
G1 F900 X103.989 Y110.688 E162.14809
G0 F9000 X103.989 Y110.122
G1 F900 X112.823 Y101.288 E162.34798
G0 F9000 X112.521 Y101.025
G1 F900 X111.553 Y101.992 E162.36987
G0 F9000 X111.553 Y101.426
G1 F900 X111.955 Y101.025 E162.37895
G0 F9000 X111.021 Y102.524
G1 F900 X103.989 Y109.557 E162.53808
G0 F9000 X103.989 Y108.991
G1 F900 X110.455 Y102.524 E162.68440
G0 F9000 X109.890 Y102.524
G1 F900 X103.989 Y108.425 E162.81793
G0 F9000 X103.989 Y107.859
G1 F900 X109.324 Y102.524 E162.93864
G0 F9000 X108.758 Y102.524
G1 F900 X103.989 Y107.294 E163.04656
G0 F9000 X103.989 Y106.728
G1 F900 X108.192 Y102.524 E163.14168
G0 F9000 X107.627 Y102.524
G1 F900 X103.989 Y106.162 E163.22400
G0 F9000 X103.989 Y105.597
G1 F900 X107.061 Y102.524 E163.29352
G0 F9000 X106.495 Y102.524
G1 F900 X103.989 Y105.031 E163.35024
G0 F9000 X103.989 Y104.465
G1 F900 X105.930 Y102.524 E163.39416
G0 F9000 X105.364 Y102.524
G1 F900 X103.989 Y103.900 E163.42528
G0 F9000 X103.989 Y103.334
G1 F900 X104.798 Y102.524 E163.44360
G0 F9000 X104.233 Y102.524
G1 F900 X103.989 Y102.768 E163.44912
G0 F9000 X112.823 Y115.430
G1 F900 X112.259 Y115.994 E163.46188
;LAYER:2
M106 S102
G0 F9000 X112.964 Y114.635 Z0.380
;TYPE:WALL-INNER
G1 F2400 X112.964 Y116.135 E163.48588
G1 X111.414 Y116.135 E163.51068
G1 X111.414 Y114.635 E163.53468
G1 X103.849 Y114.635 E163.65572
G1 X103.849 Y102.385 E163.85172
G1 X111.414 Y102.385 E163.97276
G1 X111.414 Y100.885 E163.99676
G1 X112.964 Y100.885 E164.02156
G1 X112.964 Y102.385 E164.04556
G1 X124.414 Y102.385 E164.22876
G1 X124.414 Y100.885 E164.25276
G1 X125.964 Y100.885 E164.27756
G1 X125.964 Y102.385 E164.30156
G1 X129.149 Y102.385 E164.35252
G1 X129.149 Y114.635 E164.54852
G1 X125.964 Y114.635 E164.59948
G1 X125.964 Y116.135 E164.62348
G1 X124.414 Y116.135 E164.64828
G1 X124.414 Y114.635 E164.67228
G1 X112.964 Y114.635 E164.85548
G0 F9000 X113.364 Y115.035
;TYPE:WALL-OUTER
G1 F1500 X113.364 Y116.535 E164.87948
G1 X111.014 Y116.535 E164.91708
G1 X111.014 Y115.035 E164.94108
G1 X100.449 Y115.035 E165.11012
G1 X100.449 Y101.985 E165.31892
G1 X111.014 Y101.985 E165.48796
G1 X111.014 Y100.485 E165.51196
G1 X113.364 Y100.485 E165.54956
G1 X113.364 Y101.985 E165.57356
G1 X124.014 Y101.985 E165.74396
G1 X124.014 Y100.485 E165.76796
G1 X126.364 Y100.485 E165.80556
G1 X126.364 Y101.985 E165.82956
G1 X129.549 Y101.985 E165.88052
G1 X129.549 Y115.035 E166.08932
G1 X126.364 Y115.035 E166.14028
G1 X126.364 Y116.535 E166.16428
G1 X124.014 Y116.535 E166.20188
G1 X124.014 Y115.035 E166.22588
G1 X113.364 Y115.035 E166.39628
G0 F9000 X113.364 Y114.735
G0 X103.749 Y114.710
G0 X103.449 Y114.710
G1 F1500 X103.449 Y102.310 E166.59468
G1 X100.929 Y102.310 E166.63500
G1 X100.929 Y114.710 E166.83340
G1 X103.449 Y114.710 E166.87372
G0 F9000 X103.988 Y113.888
;TYPE:SKIN
G1 F900 X104.594 Y114.494 E166.88743
G0 F9000 X105.160 Y114.494
G1 F900 X103.988 Y113.322 E166.91395
G0 F9000 X103.988 Y112.756
